img/visual/smartphone-bg.svg

<?xml version="1.0" encoding="UTF-8"?>
<svg width="168px" height="171px" viewBox="0 0 168 171" version="1.1" xmlns="http://www.w3.org/2000/svg" xmlns:xlink="http://www.w3.org/1999/xlink">
    <!-- Generator: sketchtool 59.1 (101010) - https://sketch.com -->
    <title>332AF3CF-FC33-4FCB-922E-7F1D5DAE5DC8</title>
    <desc>Created with sketchtool.</desc>
    <g id="LOT-2" stroke="none" stroke-width="1" fill="none" fill-rule="evenodd" opacity="0.695917039">
        <g id="03-Hub-Visiteur" transform="translate(-22.000000, -4342.000000)" fill="#D7DBE6" fill-rule="nonzero">
            <g id="APPLICATION" transform="translate(0.000000, 3686.000000)">
                <g id="Group-2" transform="translate(0.000000, 641.000000)">
                    <g id="smartphone-(1)">
                        <g transform="translate(22.000000, 15.000000)">
                            <path d="M123.027769,136.482447 C131.165129,136.482447 137.782728,129.864848 137.782728,121.727488 C137.782728,113.590129 131.165129,106.97253 123.027769,106.97253 C114.890409,106.97253 108.27281,113.590129 108.27281,121.727488 C108.27281,129.864848 114.886721,136.482447 123.027769,136.482447 Z M123.027769,114.350009 C127.096449,114.350009 130.405249,117.658809 130.405249,121.727488 C130.405249,125.796168 127.096449,129.104968 123.027769,129.104968 C118.959089,129.104968 115.65029,125.796168 115.65029,121.727488 C115.65029,117.658809 118.959089,114.350009 123.027769,114.350009 Z" id="Shape"></path>
                            <path d="M34.498016,44.2639544 C35.4423334,44.2639544 36.3866507,43.9024579 37.105955,43.1831537 L44.4834344,35.8056742 C45.9257316,34.363377 45.9257316,32.0320935 44.4834344,30.5897963 C43.0411372,29.147499 40.7098537,29.147499 39.2675565,30.5897963 L31.890077,37.9672757 C30.4477798,39.4095729 30.4477798,41.7408564 31.890077,43.1831537 C32.6093813,43.9024579 33.5536986,44.2639544 34.498016,44.2639544 Z" id="Path"></path>
                            <path d="M167.292646,109.731707 C167.292646,106.485616 166.027408,103.435028 163.733012,101.140632 L161.678384,99.0860041 C165.178998,95.9874627 167.288957,91.5056439 167.288957,86.6844611 C167.288957,77.5326979 159.841392,70.0851324 150.689628,70.0851324 C150.018278,70.0851324 149.354305,70.1515297 148.697709,70.232682 C148.778861,69.5723976 148.845258,68.9158019 148.845258,68.2407626 C148.845258,59.0889993 141.397693,51.6414338 132.24593,51.6414338 C131.574579,51.6414338 130.910606,51.7078311 130.25401,51.7889834 C130.335163,51.128699 130.40156,50.4721033 130.40156,49.797064 C130.40156,40.6453007 122.953994,33.1977353 113.802231,33.1977353 C113.130881,33.1977353 112.466907,33.2641326 111.810312,33.3452848 C111.891464,32.6850004 111.957861,32.0284048 111.957861,31.3533654 C111.957861,22.2016022 104.510296,14.7540367 95.3585326,14.7540367 C90.533661,14.7540367 86.055531,16.8676845 82.9569896,20.3646098 L80.0281303,17.4357505 L66.1474028,3.5550229 C61.4073722,-1.18500763 53.6979062,-1.18500763 48.9652532,3.5550229 L3.54948979,48.9707863 C-1.18316326,53.7108168 -1.18316326,61.4165941 3.54948979,66.1566246 L17.4302173,80.0373522 L35.5419293,98.1490642 C30.5399983,101.011526 27.1205366,106.341755 27.1205366,112.505639 C27.1205366,118.271139 30.0825946,123.354223 34.5607246,126.331036 C34.7857377,126.629824 35.0476382,126.924923 35.3980685,127.223711 L75.0741529,166.748557 L75.0741529,173.373533 L67.6966734,173.373533 L67.6966734,221.327149 L134.093988,221.327149 L163.603906,221.327149 L163.603906,173.373533 L156.226427,173.373533 L156.226427,162.196652 C163.282986,156.217205 167.292646,147.618752 167.292646,138.326817 C167.292646,131.90841 165.28966,125.67444 161.626742,120.429052 L163.733012,118.322782 C166.027408,116.028386 167.292646,112.977798 167.292646,109.731707 Z M159.915166,86.6844611 C159.915166,89.5174132 158.609352,92.1401072 156.458817,93.8664374 L143.507652,80.9152722 C145.233982,78.764737 147.860365,77.4589231 150.689628,77.4589231 C155.7764,77.4626118 159.915166,81.5976891 159.915166,86.6844611 Z M141.471468,68.2407626 C141.471468,71.0737147 140.165654,73.6964086 138.015119,75.4227388 L125.063954,62.4715736 C126.790284,60.3210384 129.416666,59.0152245 132.24593,59.0152245 C137.332702,59.0189133 141.471468,63.1539905 141.471468,68.2407626 Z M123.027769,49.797064 C123.027769,52.6300161 121.721955,55.25271 119.57142,56.9790402 L106.620255,44.0278751 C108.346585,41.8773398 110.972968,40.5715259 113.802231,40.5715259 C118.889003,40.5752147 123.027769,44.7102919 123.027769,49.797064 Z M95.3622213,22.1315161 C100.448993,22.1315161 104.584071,26.2665933 104.584071,31.3533654 C104.584071,34.1863175 103.278257,36.8090114 101.127721,38.5353416 L88.1765563,25.5841765 C89.9028865,23.43733 92.5292692,22.1315161 95.3622213,22.1315161 Z M8.76536775,60.9444354 C6.90624293,59.0816218 6.90624293,56.0531665 8.76536775,54.190353 L54.1811311,8.7745896 C54.6422236,8.31349713 55.1807796,7.9667556 55.7525342,7.734365 C56.010746,7.62739155 56.3021565,7.63108029 56.5751232,7.57206045 C57.2317189,7.43188834 57.8809371,7.43188834 58.5375327,7.57206045 C58.8104995,7.63108029 59.1019099,7.62739155 59.3601217,7.734365 C59.9318763,7.9667556 60.4667436,8.31349713 60.9315248,8.7745896 L69.5963744,17.4394392 L17.4302173,69.6055962 L8.76536775,60.9444354 Z M74.8122524,22.6553171 L79.1575877,27.0006525 L97.6012863,45.4443511 L99.7149342,47.557999 L116.044985,63.8880497 L118.158633,66.0016975 L134.488683,82.3317483 L136.602331,84.4453961 L155.04603,102.889095 L158.513445,106.35651 C160.376259,108.219324 160.376259,111.24409 158.513445,113.106904 L156.901466,114.722572 L156.901466,114.722572 L113.101371,158.526356 C111.245935,160.385481 108.210102,160.392858 106.347288,158.526356 L76.929589,129.104968 L80.6035737,129.104968 C89.7553369,129.104968 97.2029024,121.657402 97.2029024,112.505639 C97.2029024,103.353876 89.7553369,95.9063104 80.6035737,95.9063104 L43.7272428,95.9063104 L22.6424066,74.8214742 L74.8122524,22.6553171 Z M41.7279458,103.512492 L43.2587728,103.339121 C43.4100112,103.316989 43.5612495,103.28379 43.7161766,103.28379 L80.6035737,103.28379 C85.6903458,103.28379 89.825423,107.418867 89.825423,112.505639 C89.825423,117.592411 85.6903458,121.727488 80.6035737,121.727488 L69.5521095,121.727488 L59.1203536,121.727488 L43.7161766,121.727488 C38.6294045,121.727488 34.4943273,117.592411 34.4943273,112.505639 C34.498016,108.104973 37.6002461,104.427299 41.7279458,103.512492 Z M75.0741529,213.945981 L75.0741529,180.747324 L106.155474,180.747324 C117.490971,180.747324 126.716509,189.972862 126.716509,201.308359 L126.716509,213.945981 L75.0741529,213.945981 Z M156.226427,213.945981 L134.093988,213.945981 L134.093988,201.308359 C134.093988,193.170999 130.574931,185.859917 125.004934,180.747324 L156.226427,180.747324 L156.226427,213.945981 Z M156.318645,125.740837 C158.657306,129.50704 159.915166,133.863442 159.915166,138.326817 C159.915166,145.907177 156.418241,152.882584 150.317066,157.475065 L148.848947,158.581687 L148.848947,173.369844 L106.151785,173.369844 L82.4479436,173.369844 L82.4479436,163.34385 L81.1458184,162.240917 C80.9798252,162.097056 80.8027657,161.964261 80.4818453,161.724493 L47.7369028,129.101279 L66.4941443,129.101279 L101.127721,163.738545 C103.499581,166.106716 106.609189,167.290801 109.718796,167.290801 C112.832093,167.290801 115.945389,166.106716 118.31356,163.738545 L156.318645,125.740837 Z" id="Shape"></path>
                        </g>
                    </g>
                </g>
            </g>
        </g>
    </g>
</svg>

<svg width="168" height="171" viewbox="0 0 168 171" xmlns="http://www.w3.org/2000/svg"><g fill="#D7DBE6" fill-rule="nonzero" opacity=".696"><path d="M123.028 136.482c8.137 0 14.755-6.617 14.755-14.755 0-8.137-6.618-14.754-14.755-14.754-8.138 0-14.755 6.617-14.755 14.754 0 8.138 6.614 14.755 14.755 14.755zm0-22.132c4.068 0 7.377 3.309 7.377 7.377 0 4.07-3.309 7.378-7.377 7.378-4.069 0-7.378-3.309-7.378-7.378 0-4.068 3.31-7.377 7.378-7.377zM34.498 44.264c.944 0 1.889-.362 2.608-1.08l7.377-7.378a3.685 3.685 0 000-5.216 3.685 3.685 0 00-5.215 0l-7.378 7.377a3.685 3.685 0 000 5.216c.72.72 1.664 1.081 2.608 1.081z"/><path d="M167.293 109.732a12.07 12.07 0 00-3.56-8.591l-2.055-2.055c3.501-3.099 5.611-7.58 5.611-12.402 0-9.151-7.448-16.599-16.6-16.599-.67 0-1.335.067-1.991.148.08-.66.147-1.317.147-1.992 0-9.152-7.447-16.6-16.6-16.6-.67 0-1.334.067-1.991.148.081-.66.148-1.317.148-1.992 0-9.152-7.448-16.6-16.6-16.6-.671 0-1.335.067-1.992.148.081-.66.148-1.317.148-1.992 0-9.151-7.448-16.599-16.6-16.599-4.824 0-9.302 2.114-12.401 5.61l-2.929-2.928-13.88-13.881c-4.74-4.74-12.45-4.74-17.183 0L3.55 48.971c-4.732 4.74-4.732 12.446 0 17.186l13.881 13.88L35.542 98.15c-5.002 2.863-8.421 8.193-8.421 14.357 0 5.765 2.962 10.848 7.44 13.825.225.299.487.594.837.893l39.676 39.525v6.625h-7.377v47.953H163.604v-47.953h-7.378v-11.177c7.057-5.98 11.067-14.578 11.067-23.87 0-6.419-2.003-12.653-5.666-17.898l2.106-2.106a12.07 12.07 0 003.56-8.591zm-7.378-23.048a9.212 9.212 0 01-3.456 7.182l-12.951-12.95a9.217 9.217 0 017.182-3.457c5.086.004 9.225 4.139 9.225 9.225zm-18.444-18.443a9.212 9.212 0 01-3.456 7.182l-12.951-12.951a9.217 9.217 0 017.182-3.457c5.087.004 9.225 4.139 9.225 9.226zm-18.443-18.444a9.212 9.212 0 01-3.457 7.182l-12.95-12.951a9.217 9.217 0 017.181-3.456c5.087.003 9.226 4.138 9.226 9.225zM95.362 22.132c5.087 0 9.222 4.135 9.222 9.221a9.212 9.212 0 01-3.456 7.182l-12.951-12.95a9.227 9.227 0 017.185-3.453zM8.765 60.944a4.787 4.787 0 010-6.754L54.181 8.775c.461-.462 1-.808 1.572-1.04.258-.108.55-.104.822-.163a4.632 4.632 0 011.963 0c.272.06.564.055.822.162.572.233 1.107.58 1.572 1.04l8.664 8.665L17.43 69.606l-8.665-8.662zm66.047-38.289l4.346 4.346L97.6 45.444l2.114 2.114 16.33 16.33 2.114 2.114 16.33 16.33 2.113 2.113 18.444 18.444 3.467 3.468a4.776 4.776 0 010 6.75l-1.612 1.616-43.8 43.803a4.78 4.78 0 01-6.754 0L76.93 129.105h3.674c9.151 0 16.599-7.448 16.599-16.6 0-9.151-7.448-16.599-16.6-16.599H43.728L22.642 74.821l52.17-52.166zm-33.084 80.857l1.53-.173c.152-.022.303-.055.458-.055h36.888c5.086 0 9.221 4.135 9.221 9.222 0 5.086-4.135 9.221-9.221 9.221H43.716c-5.087 0-9.222-4.135-9.222-9.221.004-4.401 3.106-8.079 7.234-8.994zm33.346 110.434v-33.199h31.081c11.336 0 20.562 9.226 20.562 20.561v12.638H75.074zm81.152 0h-22.132v-12.638c0-8.137-3.52-15.448-9.09-20.56h31.222v33.198zm.093-88.205a23.863 23.863 0 013.596 12.586c0 7.58-3.497 14.556-9.598 19.148l-1.468 1.107v14.788H82.448v-10.026l-1.302-1.103a11.837 11.837 0 00-.664-.517l-32.745-32.623h18.757l34.634 34.638a12.121 12.121 0 008.59 3.552c3.114 0 6.227-1.184 8.596-3.552l38.005-37.998z"/></g></svg>
